images/youtube-icon.svg

<svg height="32" viewBox="0 0 32 32" width="32" xmlns="http://www.w3.org/2000/svg"><path d="m16 6c3.766 0 7.094.391 9.125.688 1.68.246 3.035 1.511 3.344 3.187.265 1.43.531 3.52.531 6.125s-.27 4.695-.531 6.125c-.309 1.676-1.664 2.945-3.344 3.187-2.039.297-5.379.688-9.125.688s-7.086-.391-9.125-.688c-1.68-.242-3.035-1.511-3.344-3.187-.261-1.426-.531-3.512-.531-6.125s.27-4.699.531-6.125c.309-1.676 1.664-2.941 3.344-3.187 2.031-.297 5.359-.688 9.125-.688zm-3 4.281v11.438l1.5-.844 7-4 1.5-.875-1.5-.875-7-4z" fill="#fff" fill-rule="evenodd"/></svg>

<?xml version="1.0" encoding="UTF-8"?>
<svg width="32px" height="32px" viewBox="0 0 32 32" version="1.1" xmlns="http://www.w3.org/2000/svg" xmlns:xlink="http://www.w3.org/1999/xlink">
    <!-- Generator: Sketch 51.3 (57544) - http://www.bohemiancoding.com/sketch -->
    <title>youtube-icon</title>
    <desc>Created with Sketch.</desc>
    <defs>
        <path d="M16,6 C19.766,6 23.094,6.391 25.125,6.688 C26.805,6.934 28.16,8.199 28.469,9.875 C28.734,11.305 29,13.395 29,16 C29,18.605 28.73,20.695 28.469,22.125 C28.16,23.801 26.805,25.07 25.125,25.312 C23.086,25.609 19.746,26 16,26 C12.254,26 8.914,25.609 6.875,25.312 C5.195,25.07 3.84,23.801 3.531,22.125 C3.27,20.699 3,18.613 3,16 C3,13.387 3.27,11.301 3.531,9.875 C3.84,8.199 5.195,6.934 6.875,6.688 C8.906,6.391 12.234,6 16,6 Z M13,10.281 L13,21.719 L14.5,20.875 L21.5,16.875 L23,16 L21.5,15.125 L14.5,11.125 L13,10.281 Z" id="path-1"></path>
    </defs>
    <g id="youtube-icon" stroke="none" stroke-width="1" fill="none" fill-rule="evenodd">
        <mask id="mask-2" fill="white">
            <use xlink:href="#path-1"></use>
        </mask>
        <use id="Mask" fill="#FFFFFF" xlink:href="#path-1"></use>
    </g>
</svg>
